svg/300/outlined/view_week-fill.svg

<svg xmlns="http://www.w3.org/2000/svg" width="48" height="48" viewBox="0 -960 960 960"><path d="M147.539-180.001q-20.23 0-33.576-13.346t-13.346-33.577v-506.152q0-20.231 13.346-33.577 13.346-13.346 33.576-13.346h131.54q20.23 0 33.576 13.346t13.346 33.577v506.152q0 20.231-13.346 33.577-13.346 13.346-33.576 13.346h-131.54Zm270.768 0q-19.846 0-33.384-13.346t-13.538-33.577v-506.152q0-20.231 13.538-33.577 13.538-13.346 33.384-13.346h124.002q19.845 0 33.384 13.346 13.538 13.346 13.538 33.577v506.152q0 20.231-13.538 33.577-13.539 13.346-33.384 13.346H418.307Zm263.229 0q-20.23 0-33.576-13.346t-13.346-33.577v-506.152q0-20.231 13.346-33.577 13.346-13.346 33.576-13.346h131.54q20.231 0 33.577 13.346 13.346 13.346 13.346 33.577v506.152q0 20.231-13.346 33.577-13.346 13.346-33.577 13.346h-131.54Z"/></svg>

<svg xmlns="http://www.w3.org/2000/svg" width="48" height="48" viewBox="0 -960 960 960"><path d="M147.54-180q-20.23 0-33.58-13.35-13.34-13.34-13.34-33.57v-506.16q0-20.23 13.34-33.57Q127.31-780 147.54-780h131.54q20.23 0 33.58 13.35Q326-753.31 326-733.08v506.16q0 20.23-13.34 33.57Q299.31-180 279.08-180H147.54Zm270.77 0q-19.85 0-33.39-13.35-13.54-13.34-13.54-33.57v-506.16q0-20.23 13.54-33.57Q398.46-780 418.31-780h124q19.84 0 33.38 13.35 13.54 13.34 13.54 33.57v506.16q0 20.23-13.54 33.57Q562.15-180 542.31-180h-124Zm263.23 0q-20.23 0-33.58-13.35-13.35-13.34-13.35-33.57v-506.16q0-20.23 13.35-33.57Q661.31-780 681.54-780h131.54q20.23 0 33.57 13.35Q860-753.31 860-733.08v506.16q0 20.23-13.35 33.57Q833.31-180 813.08-180H681.54Z"/></svg>
